!!!OTL: Graf und Nonne (Die Nonne) Mein Schatz hat ein weiss' Hemet an,
!!!ARE: Europa, Osteuropa, Ungarn, Deutsch - Pilsen, Honter Gespannschaft
!!!YOR: 8, S. 75
!!    1930 aufgezeichnet
!!!SCT: Q0155W
!!!YEM: Copyright 1995, estate of Helmut Schaffrath.
**kern
*ICvox
*Ivox
*M4/4
*k[b-e-]
*g:
{4d
=1
4g
4f#
4g
4a
=2
4b-
4b-
4a}
{4a
=3
4dd
4dd
4cc
4b-
=4
2a
4r}
{8b-
8cc
=5
4b-
4fn
4b-
4cc
=6
2dd
4cc}
{4b-
=7
4a
4g
4b-
4a
=8
2g
4r}
{8b-
8cc
=9
4b-
4fn
4b-
4cc
=10
2dd
4cc}
{4b-
=11
4a
4g
4b-
4a
=12
2g
4r}
==
!!!AGN: Ballade, Standesunterschied, vergebliche Werbung, Liebe, Klage
!!!ONB: ESAC (Essen Associative Code) Database: BALLADE
!!!AMT: simple quadruple
!!!AIN: vox
!!!EED: Helmut Schaffrath
!!!EEV: 1.0
*-
